src/dsmComponents/Icons/list-bullet-16px.svg

<?xml version="1.0" encoding="UTF-8"?>
<svg width="16px" height="16px" viewBox="0 0 16 16" version="1.1" xmlns="http://www.w3.org/2000/svg" xmlns:xlink="http://www.w3.org/1999/xlink">
    <!-- Generator: Sketch 59.1 (86144) - https://sketch.com -->
    <title>list-bullet-16px</title>
    <desc>Created with Sketch.</desc>
    <defs>
        <path d="M2,12 C3.1045695,12 4,12.8954305 4,14 C4,15.1045695 3.1045695,16 2,16 C0.8954305,16 0,15.1045695 0,14 C0,12.8954305 0.8954305,12 2,12 Z M16,13 L16,15 L6,15 L6,13 L16,13 Z M2,6 C3.1045695,6 4,6.8954305 4,8 C4,9.1045695 3.1045695,10 2,10 C0.8954305,10 0,9.1045695 0,8 C0,6.8954305 0.8954305,6 2,6 Z M16,7 L16,9 L6,9 L6,7 L16,7 Z M2,0 C3.1045695,0 4,0.8954305 4,2 C4,3.1045695 3.1045695,4 2,4 C0.8954305,4 0,3.1045695 0,2 C0,0.8954305 0.8954305,0 2,0 Z M16,1 L16,3 L6,3 L6,1 L16,1 Z" id="path-1"></path>
    </defs>
    <g id="Final" stroke="none" stroke-width="1" fill="none" fill-rule="evenodd">
        <g id="All-Nucleo-Icons" transform="translate(-319.000000, -3868.000000)">
            <g id="Solo/Nucleo/16px/list-bullet" transform="translate(315.000000, 3864.000000)">
                <g id="list-bullet" transform="translate(4.000000, 4.000000)">
                    <g id="Colour/Default-Colour">
                        <mask id="mask-2" fill="white">
                            <use xlink:href="#path-1"></use>
                        </mask>
                        <g id="Mask" fill-rule="nonzero"></g>
                        <g id="colour/neutral/chia" mask="url(#mask-2)" fill="#737373">
                            <g transform="translate(-24.000000, -24.000000)" id="Colour">
                                <rect x="0" y="0" width="64" height="64"></rect>
                            </g>
                        </g>
                    </g>
                </g>
            </g>
        </g>
    </g>
</svg>

<svg width="16" height="16" xmlns="http://www.w3.org/2000/svg" xmlns:xlink="http://www.w3.org/1999/xlink"><defs><path d="M2 12a2 2 0 110 4 2 2 0 010-4zm14 1v2H6v-2h10zM2 6a2 2 0 110 4 2 2 0 010-4zm14 1v2H6V7h10zM2 0a2 2 0 110 4 2 2 0 010-4zm14 1v2H6V1h10z" id="list-bullet-16px_svg__a"/></defs><use fill="#737373" xlink:href="#list-bullet-16px_svg__a" fill-rule="evenodd"/></svg>
